X:1
T:Title
%%score { ( 1 3 4 ) | ( 2 5 ) }
L:1/8
M:4/4
K:Ab
V:1 treble nm="Grand Piano"
V:3 treble 
V:4 treble 
V:2 bass 
V:5 bass 
V:1
 z4 z2 E2 | z2 z A F2 E2 | [CA]2 [CA]4 [EB]2 | z2 z B [Ec]2 [Fd]2 | [EB]6 [EB]2 | B4 z4 | %6
 [B,EG]2 [B,=DA]2 [B,EB]2 [Ec]2 | B,2 z e [Ae]2 [A=d]2 |[M:3/4] [Ge]6 |[M:1/4] e2 | %10
[M:4/4] [Ac]6 e2 | [Bd]6 E,2 | d2 c2 d2 f2 | [ce]2 [Bd]2 [Ac]2 e2 | [Ac]6 e2 | [GB]6 G2 | %16
 B2 c2 B2 c2 | [GB]2 G2 E2 e2 | [Ac]6 e2 | [Bd]6 E,2 | d2 c2 d2 f2 | [ce]2 [Bd]2 [Ac]2 [Ac]2 | %22
 [Ae]2 [Ae]2 [DAd]2 [DAd]2 |[M:9/8] [EGc]2 [FGB]- [FGB] [=EGc]2- [EGc] [CGB]2 | %24
[M:4/4] [CFA]2 [FAB]2 [EAc]2 [DGB]2 |[M:3/4] [CEA]6 |] %26
V:2
 z4 z2 E,2 | [A,,E,]2 z E [D,A,D]2 [E,G,D]2 | [A,,A,]2 [A,,A,]4 [E,G,]2 | %3
 A,2 z E [A,,A,]2 [D,A,]2 | [E,G,]6 [E,G,]2 | =D,2 z[K:treble] c[K:bass] C,2 D,2 | %6
 E,2 F,2 G,2 A,2 | G,2 z G [B,,B,]2 [B,,B,]2 |[M:3/4] [E,B,]6 |[M:1/4] E2 | %10
[M:4/4] A,,2 E,2 A,2 E2 | [E,,E,]2 E,2 B,2 z2 | [B,EG]2 [=A,E_G]2 [B,E=G]2 d2 | %13
 A,,2 [E,A,C]2 [E,A,C]2 E2 | A,,2 E,2 A,2 E2 | B,,2 G,2 B,2 [E,B,E]2 | %16
 [B,=DA]2 [B,DA]2 [B,DA]2 [B,DA]2 | [E,E]2 [E,B,E]2 [E,G,]2 E2 | A,,2 E,2 A,2 E2 | %19
 E,,2 E,2 B,2 z2 | [B,EG]2 [=A,E_G]2 [B,E=G]2 d2 | A,,2 [E,A,C]2 [E,A,C]2 [A,E]2 | %22
 [_G,C]2 [G,C]2 F,2 F,2 |[M:9/8] E,2 D,- D, C,2- C, =E,2 |[M:4/4] F,2 D,2 E,2 E,2 |[M:3/4] A,,6 |] %26
V:3
 x8 | [CA]4 z4 | x8 | [Ec]4 z4 | x8 | [B,F]2 [B,=D]2 [B,EB]2 [B,FA]2 | x8 | [EB]4 z4 |[M:3/4] x6 | %9
[M:1/4] x2 |[M:4/4] x8 | x8 | x8 | x8 | x8 | x8 | x8 | x8 | x8 | x8 | x8 | x8 | x8 |[M:9/8] x9 | %24
[M:4/4] x8 |[M:3/4] x6 |] %26
V:4
 x8 | z2 A,2 z4 | x8 | z2 G,2 z4 | x8 | x8 | x8 | z2 B,2 z4 |[M:3/4] x6 |[M:1/4] x2 |[M:4/4] x8 | %11
 x8 | x8 | x8 | x8 | x8 | x8 | x8 | x8 | x8 | x8 | x8 | x8 |[M:9/8] x9 |[M:4/4] x8 |[M:3/4] x6 |] %26
V:5
 x8 | z2 C,2 z4 | x8 | z2 E,2 z4 | x8 | z2 B,,2[K:treble][K:bass] z4 | x8 | z2 B,,2 z4 | %8
[M:3/4] x6 |[M:1/4] x2 |[M:4/4] x8 | x8 | x8 | x8 | x8 | x8 | x8 | x8 | x8 | x8 | x8 | x8 | x8 | %23
[M:9/8] x9 |[M:4/4] x8 |[M:3/4] x6 |] %26

